X: 95
T:Lord Ronald, My Son
S:Burns, SMM, collected in Ayrshire
B:G.F. Graham, Popular Songs and Melodies of Scotland
G:ballad tune
M:3/4
L:1/8
Q:1/4=72
K:F
% major/mixolydian hexatonic
FG |A2 A2 Ac|A2 G2 Ac|d2 d2 cA |G4
Ac |d3  c AF|CD F2 FG|A2 BA G>F|F4
F>G|A2 A2 Ac|A2 G2 Ac|d2 c2 cA |G4
Ac |d3  c AF|CD F2 FG|A2 BA G>F|F4|]

